X:1
T:Devil Among the Tailors
T:De'il Among the Tailors
R:reel 32/16
O:England
S:Thompson 1772
M:4/4
L:1/8
Q:2/4=90
K:A
|:eg|a2eg a2eg|a2ea fedc|dfBf dfBf|dfba gfeg|
a2eg a2eg|a2ea fedc|defd ecBA|E2G2 A2:|]
|:ed|ceAe ceAe|ceag fedc|dfBf dfBf|dfba gfed|
ceAe ceAe|ceag fedc|defd ecBA|E2G2 A2:|]
K:G
|:df|g2df g2df|g2dg edcB|ceAe ceAe|ceag fdef|
g2df g2df|g2dg edcB|cdec dBGE|DGFA G2:|]
|:dc|BdGd BdGd|Bdgf edcB|ceAe ceAe|ceag fedc|
BdGd BdGd|Bdgf edcB|cdec dBGE|DGFA G2:|]
